X:80
T:An Ghabha (aka the blacksmith)
M:4/4
L:1/8
Q:200
S:Sean Potts
K:EMin
|: d2 fd Adfd| d2 fa gece| d2 Fd Ad f2| edcd efge:|0
| a2 fa afdf| a2 gf efge|  a2 fa afdf| edcd efge|  a2 fa afdf|
a2 gf ef g2| afgf fdec| ABcd efge||

